shell/app/images/android.svg

<?xml version="1.0" encoding="UTF-8"?>
<svg width="100px" height="100px" viewBox="0 0 100 100" version="1.1" xmlns="http://www.w3.org/2000/svg" xmlns:xlink="http://www.w3.org/1999/xlink">
    <!-- Generator: Sketch 60 (88103) - https://sketch.com -->
    <title>Icon/实物类/android</title>
    <desc>Created with Sketch.</desc>
    <defs>
        <linearGradient x1="-80.6878049%" y1="52.2209533%" x2="110.012195%" y2="48.2288616%" id="linearGradient-1">
            <stop stop-color="#D8D8F4" offset="0%"></stop>
            <stop stop-color="#7673F0" offset="100%"></stop>
        </linearGradient>
        <linearGradient x1="235.412195%" y1="-36.9916327%" x2="-6.18780488%" y2="71.0483176%" id="linearGradient-2">
            <stop stop-color="#7E67FF" offset="0%"></stop>
            <stop stop-color="#6639F4" offset="100%"></stop>
        </linearGradient>
        <linearGradient x1="49.9892031%" y1="101.160879%" x2="49.9892031%" y2="-8.55134951%" id="linearGradient-3">
            <stop stop-color="#4656DD" offset="0%"></stop>
            <stop stop-color="#FFFFFF" stop-opacity="0" offset="100%"></stop>
        </linearGradient>
        <linearGradient x1="58.9056371%" y1="106.696637%" x2="58.9056371%" y2="-31.2148282%" id="linearGradient-4">
            <stop stop-color="#5DECDE" stop-opacity="0.482" offset="0%"></stop>
            <stop stop-color="#37E4D0" stop-opacity="0" offset="100%"></stop>
        </linearGradient>
        <linearGradient x1="60.0296427%" y1="-43.7404696%" x2="60.0296427%" y2="182.634%" id="linearGradient-5">
            <stop stop-color="#94FFF6" offset="0%"></stop>
            <stop stop-color="#40E5C0" offset="100%"></stop>
        </linearGradient>
    </defs>
    <g id="Icon/实物类/android" stroke="none" stroke-width="1" fill="none" fill-rule="evenodd">
        <path d="M15.9143681,75.6322454 C15.6641877,75.9154775 15.5391323,76.1378398 15.5392018,76.2993321 C15.54153,81.7101389 15.5414209,84.7132757 15.5388744,85.3087426 C15.5348837,86.241931 14.8779237,89.7116674 20.3198096,89.6576116 C25.7616955,89.6035558 78.2708279,89.5495 80.339007,89.6035558 C82.407186,89.6576116 83.8419326,87.6598504 83.7494209,85.3087426 C83.6877465,83.7413374 83.7260686,80.7382006 83.8643871,76.2993321 L75.428263,76.6726326 L15.9143681,75.6322454 Z" id="路径-7" fill="url(#linearGradient-1)" fill-rule="nonzero"></path>
        <path d="M83.8532698,76.0606047 C84.0083628,77.4745814 82.5227349,78.7098837 80.5228512,78.8196279 C80.4248977,78.8250698 80.3269442,78.8314186 80.2371535,78.8314186 L19.1631535,78.8314186 C17.1632698,78.8314186 15.5388744,77.6822791 15.5388744,76.2628605 C15.5388744,76.1930233 15.5388744,76.1295349 15.5470372,76.0606047 L19.5917581,49.1224884 C19.7468512,47.7892326 21.3222698,46.7616279 23.2078744,46.7616279 L76.1842698,46.7616279 C78.0780372,46.7616279 79.6534558,47.7892326 79.800386,49.1224884 L83.8532698,76.0606047 Z" id="Fill-19" fill="url(#linearGradient-2)" fill-rule="nonzero"></path>
        <polygon id="路径" fill="url(#linearGradient-3)" fill-rule="nonzero" opacity="0.4" points="23.929316 74 22 72.1700017 8.72443559 16 88.1453542 16 77 72.5436633 75.3262584 74"></polygon>
        <path d="M60.7457627,19.75 C62.0779261,19.75 63.1640022,20.7507944 63.4311482,22.1105364 L63.461302,22.2898769 L63.4816384,22.4858757 L63.4816384,57.5141243 C63.4816384,58.8845139 62.4332699,60.0525722 61.0855943,60.2278186 L60.9156301,60.2444964 L60.7457627,60.25 L38.4858757,60.25 C37.1154861,60.25 35.9474278,59.2016315 35.7721814,57.8539559 L35.7555036,57.6839918 L35.75,57.5141243 L35.75,22.4858757 C35.75,21.0986488 36.7175001,19.945124 38.0368128,19.7719865 L38.2035147,19.7555045 L38.3728814,19.75 L60.7457627,19.75 Z M43.437,21.831 L38.3728814,21.8319209 C38.1154135,21.8319209 37.8319175,22.0644766 37.7467704,22.3161824 L37.7260421,22.4005009 L37.7189266,22.4858757 L37.7189266,57.5141243 C37.7189266,57.7715922 37.9514823,58.0550882 38.2031881,58.1402352 L38.2875066,58.1609636 L38.3728814,58.1680791 L60.6327684,58.1680791 C60.8902363,58.1680791 61.1737323,57.9355234 61.2588793,57.6838176 L61.2796076,57.5994991 L61.2867232,57.5141243 L61.2867232,22.4858757 C61.2867232,22.2284078 61.0541675,21.9449118 60.8024616,21.8597648 L60.7181431,21.8390364 L60.6327684,21.8319209 L55.567,21.831 L55.5667212,21.858365 C55.4891969,23.0477742 54.5719258,24.0250968 53.3878395,24.1830196 L53.2247731,24.1994185 L53.0621469,24.2048022 L45.9435028,24.2048022 C44.6811843,24.2048023 43.6204996,23.2585163 43.4553985,22.0206078 L43.4389995,21.8575415 L43.437,21.831 Z M53.990113,21.3319209 L45.1285311,21.3319209 L45.1285311,21.6949153 L45.1355416,21.8189087 C45.18648,22.2611473 45.5097847,22.5635866 45.9339721,22.6154317 L45.9339721,22.6154317 L46.0413318,22.622421 L53.1751412,22.6228814 L53.2805358,22.6154995 C53.6581062,22.5619605 53.9342157,22.2237675 53.9828303,21.8167609 L53.9828303,21.8167609 L53.9896664,21.7098517 L53.990113,21.3319209 Z M49.559322,49.2754237 C51.2793141,49.2754237 52.7471751,50.7432847 52.7471751,52.4632768 C52.7471751,54.1832689 51.2793141,55.65113 49.559322,55.65113 C47.8393299,55.65113 46.3714689,54.1832689 46.3714689,52.4632768 C46.3714689,50.7432847 47.8393299,49.2754237 49.559322,49.2754237 Z M49.559322,51.3573446 C48.9064328,51.3573446 48.4533898,51.8103876 48.4533898,52.4632768 C48.4533898,53.1161661 48.9064328,53.569209 49.559322,53.569209 C50.2122113,53.569209 50.6652542,53.1161661 50.6652542,52.4632768 C50.6652542,51.8103876 50.2122113,51.3573446 49.559322,51.3573446 Z" id="形状结合" fill="#6AF0E3" fill-rule="nonzero"></path>
        <path d="M53.4203106,32.7356055 C53.4432697,32.5448018 53.4207726,32.5223649 53.2324395,32.5223649 C52.0343872,32.5221988 50.8363751,32.5221988 49.6383429,32.5223046 C48.4448301,32.5223649 47.2512974,32.5221988 46.0577646,32.5224653 C45.8395625,32.5224653 45.8394621,32.5230077 45.8394621,32.7382971 C45.8397031,34.7875644 45.8399442,36.8368717 45.8402656,38.8861189 C45.8402656,38.9311332 45.8393617,38.9762681 45.8420332,39.021182 C45.8641889,39.395036 46.13546,39.6544961 46.5101376,39.6586742 C46.7037735,39.6607632 46.8974899,39.6615265 47.0911258,39.6587144 C47.1925638,39.6573083 47.2422784,39.7005148 47.2418566,39.8024951 C47.2395265,40.3969214 47.2381606,40.9913276 47.235469,41.5857338 C47.233621,41.998998 47.3982719,42.2419067 47.754309,42.314259 C47.9883795,42.3618847 48.2292795,42.3542718 48.4657404,42.3115674 C48.720661,42.2654885 48.9567,41.9196755 48.9527429,41.6983801 C48.9414944,41.0725583 48.9522207,40.4463749 48.9480225,39.8203321 C48.9471789,39.695212 48.9919924,39.6552394 49.1137782,39.657248 C49.460495,39.6628322 49.8073123,39.6589956 50.1541296,39.6592165 C50.3671895,39.6593772 50.3766503,39.6679744 50.3769114,39.8786841 C50.3775944,40.47767 50.3756058,41.0767564 50.3782773,41.6757424 C50.3798642,42.0237248 50.5996129,42.2862783 50.9396007,42.3258893 C51.1211244,42.3470808 51.3064847,42.3606795 51.4910012,42.336716 C51.5632934,42.3273154 51.6307647,42.3096391 51.6969102,42.2772794 C51.9788474,42.1395448 52.0824547,41.8990666 52.0838005,41.6035909 C52.0864921,41.0136239 52.0839612,40.4236367 52.0847245,39.8336095 C52.0849455,39.6674521 52.0935024,39.6602812 52.2625924,39.6594777 C52.4472295,39.658634 52.6320274,39.6633745 52.8165239,39.6578507 C53.1104127,39.6489924 53.4327242,39.3514077 53.4205114,39.069129 C53.4103676,38.8341345 53.4314185,38.6019521 53.4316194,38.3685042 C53.4332866,36.602982 53.4318403,34.8375 53.4341309,33.0719778 C53.4342909,32.9593515 53.4065914,32.8494169 53.4203106,32.7356055 Z M46.0126699,32.089938 C47.2150007,32.0903197 48.4173716,32.090159 49.6197225,32.0903197 C50.8265928,32.0904804 52.033423,32.0908018 53.2403135,32.090159 C53.4204512,32.0900987 53.4342909,32.0687466 53.3753766,31.9049594 C53.049811,30.9994501 52.4815176,30.2909112 51.659107,29.7882812 C51.5295678,29.7090793 51.518741,29.6538006 51.6029245,29.5252657 C51.6965888,29.3822483 51.7903737,29.2393112 51.8820093,29.0950082 C51.9687438,28.9583582 52.0545944,28.8210655 52.1371508,28.6819047 C52.1757776,28.6167835 52.1743113,28.5522248 52.1040278,28.5043984 C52.0321576,28.4554671 51.975975,28.4856574 51.9280481,28.5428644 C51.9050287,28.570323 51.8873122,28.6022006 51.8668238,28.6318084 C51.6777073,28.9056507 51.5251487,29.2026931 51.3287206,29.4721966 C51.2726586,29.5491488 51.2234662,29.5648165 51.1374951,29.5266517 C51.0143635,29.4720761 50.88848,29.4193083 50.7587198,29.3846788 C49.8637359,29.1457874 48.9796792,29.1581608 48.1142831,29.5171306 C48.033896,29.5504745 47.9795816,29.5372374 47.9334624,29.4611288 C47.8471699,29.318714 47.755695,29.1794929 47.666048,29.0391269 C47.5618782,28.8761031 47.4580701,28.7128382 47.3527152,28.5506179 C47.3094886,28.4840907 47.2492686,28.4649279 47.1780411,28.5041573 C47.1023744,28.545777 47.1007876,28.607383 47.1387314,28.6765817 C47.162494,28.719969 47.1834243,28.765144 47.2100593,28.8066432 C47.3583194,29.0374396 47.5079253,29.2673723 47.6571094,29.4975862 C47.7484437,29.6385146 47.7392841,29.6962037 47.6066114,29.7722118 C47.2765665,29.9614287 46.9776359,30.1884287 46.7181155,30.4689197 C46.3334548,30.8846746 46.0449694,31.3566322 45.8640081,31.8932087 C45.8018196,32.0777454 45.8129677,32.0898978 46.0126699,32.089938 Z M51.3905801,30.4769085 C51.6782289,30.4750724 51.9833888,30.7694882 51.9925829,31.0577653 C52.002019,31.352544 51.6997927,31.6696699 51.4027684,31.6767763 C51.0975479,31.6839734 50.8020055,31.3961197 50.7929626,31.0827737 C50.7846153,30.7942547 51.0957938,30.4788222 51.3905801,30.4769085 Z M48.2273559,30.5342655 C48.5270263,30.5209557 48.796828,30.8218249 48.7949964,31.1350011 C48.7932095,31.4502437 48.52509,31.7285044 48.2181191,31.7337615 C47.8969598,31.7392921 47.5973846,31.4506387 47.5963054,31.1346668 C47.5722137,30.7528143 47.8843585,30.5496113 48.2273559,30.5342655 Z M55.5975905,34.6599735 C55.5975302,34.2820218 55.6041588,33.9038893 55.594236,33.5262188 C55.587286,33.2622994 55.4753427,33.0602672 55.2237364,32.9322746 C55.0253198,32.8313589 54.8225444,32.8476091 54.6175193,32.8473479 C54.1723172,32.8468257 53.893855,33.1269149 53.8932926,33.5722375 C53.8925092,34.1930979 53.8930917,34.8139985 53.8930315,35.4349192 C53.8929511,36.0693381 53.8933528,36.7036968 53.8927699,37.3381157 C53.8925293,37.6023967 53.996458,37.8010744 54.2296447,37.9404562 C54.4484895,38.0713011 54.6814151,38.0395239 54.9126534,38.0284963 C54.9832984,38.0251217 55.0618174,38.0496074 55.1237247,38.019156 C55.4232578,37.871619 55.6030541,37.6491586 55.5999607,37.2919966 C55.5923478,36.4147493 55.5976708,35.5373213 55.5975905,34.6599735 Z M44.6421129,32.846665 C44.5385658,32.847127 44.4349987,32.8459218 44.3314516,32.8467654 C43.8777529,32.8504614 43.5559838,33.2090495 43.604915,33.6620854 C43.6170474,33.7744505 43.6214665,33.8862934 43.6214665,33.9988192 C43.6214665,34.5346123 43.6214665,35.0703854 43.6215066,35.6061585 C43.6215468,36.1959849 43.6197189,36.7858113 43.6223904,37.3756378 C43.6235555,37.6321854 43.7479525,37.8124436 43.9695894,37.9430876 C44.197875,38.0775682 44.4424509,38.0497682 44.6805187,38.0285767 C45.0829762,37.9929227 45.3280542,37.705522 45.3252622,37.3023815 C45.3235548,37.0595933 45.3045929,36.8168453 45.3060994,36.5741776 C45.3123866,35.5615258 45.2822766,34.5485525 45.3262263,33.536222 C45.3450677,33.1024895 44.9357807,32.8453393 44.6421129,32.846665 Z" id="形状" fill="#6AF0E3" fill-rule="nonzero"></path>
        <path d="M43.437,21.831 L38.3728814,21.8319209 C38.1154135,21.8319209 37.8319175,22.0644766 37.7467704,22.3161824 L37.7260421,22.4005009 L37.7189266,22.4858757 L37.7189266,57.5141243 C37.7189266,57.7715922 37.9514823,58.0550882 38.2031881,58.1402352 L38.2875066,58.1609636 L38.3728814,58.1680791 L60.6327684,58.1680791 C60.8902363,58.1680791 61.1737323,57.9355234 61.2588793,57.6838176 L61.2796076,57.5994991 L61.2867232,57.5141243 L61.2867232,22.4858757 C61.2867232,22.2284078 61.0541675,21.9449118 60.8024616,21.8597648 L60.7181431,21.8390364 L60.6327684,21.8319209 L55.567,21.831 L55.5667212,21.858365 C55.4891969,23.0477742 54.5719258,24.0250968 53.3878395,24.1830196 L53.2247731,24.1994185 L53.0621469,24.2048022 L45.9435028,24.2048022 C44.6811843,24.2048023 43.6204996,23.2585163 43.4553985,22.0206078 L43.4389995,21.8575415 L43.437,21.831 Z" id="路径备份" fill="url(#linearGradient-4)" fill-rule="nonzero" opacity="0.4"></path>
        <line x1="32.5" y1="85.5" x2="32.5" y2="89.5" id="直线" stroke="#FBF8FF" stroke-width="0.535" opacity="0.6"></line>
        <line x1="66.5" y1="85.5" x2="66.5" y2="89.5" id="直线备份" stroke="#FBF8FF" stroke-width="0.535" opacity="0.6"></line>
        <path d="M76.9910509,71.7536129 C77.1158961,72.8999689 75.92001,73.9014678 74.3101632,73.9904409 C74.2313136,73.9948528 74.152464,74 74.0801851,74 L24.9174366,74 C23.3075898,74 22,73.068356 22,71.9175882 C22,71.8609689 22,71.8094969 22.0065708,71.7536129 L24.4574803,53.9140247 C24.5823256,52.8331118 25.8504906,52 27.3683461,52 L71.6227048,52 C73.1471311,52 74.4152961,52.8331118 74.5335705,53.9140247 L76.9910509,71.7536129 Z" id="Fill-19备份" stroke="#FFFFFF" stroke-width="0.669" opacity="0.2"></path>
        <g id="编组" transform="translate(29.700000, 84.000000)" fill="url(#linearGradient-5)" fill-rule="nonzero">
            <rect id="矩形" x="0" y="0" width="6" height="2.5"></rect>
            <rect id="矩形备份" x="34" y="0" width="6" height="2.5"></rect>
        </g>
    </g>
</svg>

<svg width="100" height="100" viewBox="0 0 100 100" xmlns="http://www.w3.org/2000/svg"><defs><linearGradient x1="-80.688%" y1="52.221%" x2="110.012%" y2="48.229%" id="a"><stop stop-color="#D8D8F4" offset="0%"/><stop stop-color="#7673F0" offset="100%"/></linearGradient><linearGradient x1="235.412%" y1="-36.992%" x2="-6.188%" y2="71.048%" id="b"><stop stop-color="#7E67FF" offset="0%"/><stop stop-color="#6639F4" offset="100%"/></linearGradient><linearGradient x1="49.989%" y1="101.161%" x2="49.989%" y2="-8.551%" id="c"><stop stop-color="#4656DD" offset="0%"/><stop stop-color="#FFF" stop-opacity="0" offset="100%"/></linearGradient><linearGradient x1="58.906%" y1="106.697%" x2="58.906%" y2="-31.215%" id="d"><stop stop-color="#5DECDE" stop-opacity=".482" offset="0%"/><stop stop-color="#37E4D0" stop-opacity="0" offset="100%"/></linearGradient><linearGradient x1="60.03%" y1="-43.74%" x2="60.03%" y2="182.634%" id="e"><stop stop-color="#94FFF6" offset="0%"/><stop stop-color="#40E5C0" offset="100%"/></linearGradient></defs><g fill="none" fill-rule="evenodd"><path d="M15.914 75.632c-.25.283-.375.506-.375.667.003 5.411.002 8.414 0 9.01-.004.933-.661 4.403 4.78 4.349 5.443-.054 57.952-.109 60.02-.054 2.068.054 3.503-1.944 3.41-4.295-.061-1.568-.023-4.57.115-9.01l-8.436.374-59.514-1.04z" fill="url(#a)" fill-rule="nonzero"/><path d="M83.853 76.06c.155 1.415-1.33 2.65-3.33 2.76-.098.005-.196.011-.286.011H19.163c-2 0-3.624-1.149-3.624-2.568 0-.07 0-.133.008-.202l4.045-26.939c.155-1.333 1.73-2.36 3.616-2.36h52.976c1.894 0 3.47 1.027 3.616 2.36l4.053 26.939z" fill="url(#b)" fill-rule="nonzero"/><path fill="url(#c)" fill-rule="nonzero" opacity=".4" d="M23.93 74L22 72.17 8.724 16h79.421L77 72.544 75.326 74z"/><path d="M60.746 19.75c1.332 0 2.418 1 2.685 2.36l.03.18.02.196v35.028c0 1.37-1.048 2.539-2.395 2.714l-.17.016-.17.006h-22.26c-1.37 0-2.539-1.048-2.714-2.396l-.016-.17-.006-.17V22.486c0-1.387.968-2.54 2.287-2.714l.167-.016.169-.006h22.373zm-17.309 2.081h-5.064c-.258 0-.541.233-.626.485l-.021.085-.007.085v35.028c0 .258.232.541.484.626l.085.021.085.007h22.26c.257 0 .54-.232.626-.484l.02-.085.008-.085V22.486c0-.258-.233-.541-.485-.626l-.084-.021-.085-.007-5.066-.001v.027a2.52 2.52 0 0 1-2.18 2.325l-.162.016-.163.006h-7.118a2.519 2.519 0 0 1-2.489-2.184l-.016-.163-.002-.027zm10.553-.5H45.13v.364l.007.124c.05.442.374.745.798.796l.107.007h7.134l.106-.007c.377-.053.653-.391.702-.798l.007-.107v-.378zm-4.43 27.944c1.72 0 3.187 1.468 3.187 3.188 0 1.72-1.468 3.188-3.188 3.188-1.72 0-3.188-1.468-3.188-3.188 0-1.72 1.468-3.188 3.188-3.188zm0 2.082c-.654 0-1.107.453-1.107 1.106s.453 1.106 1.106 1.106 1.106-.453 1.106-1.106-.453-1.106-1.106-1.106z" fill="#6AF0E3" fill-rule="nonzero"/><path d="M53.42 32.736c.023-.191 0-.214-.188-.214H46.058c-.218 0-.219.001-.219.216l.001 6.148c0 .045 0 .09.002.135a.652.652 0 0 0 .668.638c.194.002.387.003.581 0 .102-.002.151.042.15.143-.001.595-.003 1.19-.006 1.784-.001.413.163.656.52.728.233.048.474.04.71-.002.256-.047.492-.392.488-.614-.012-.625 0-1.252-.005-1.878 0-.125.044-.165.166-.163.346.006.693.002 1.04.002.213 0 .223.009.223.22 0 .599-.001 1.198.001 1.797.002.348.222.61.562.65.181.021.366.035.551.01a.649.649 0 0 0 .206-.059c.282-.137.385-.378.387-.673.002-.59 0-1.18 0-1.77 0-.167.01-.174.179-.175.184 0 .369.004.554-.001.293-.009.616-.307.604-.589-.01-.235.01-.467.01-.7.002-1.766 0-3.532.003-5.297 0-.113-.027-.223-.014-.336zm-7.407-.646h7.227c.18 0 .194-.021.135-.185a3.99 3.99 0 0 0-1.716-2.117c-.13-.079-.14-.134-.056-.263.094-.143.187-.286.279-.43.087-.137.173-.274.255-.413.039-.065.037-.13-.033-.178-.072-.049-.128-.018-.176.039-.023.027-.04.06-.061.089-.19.274-.342.57-.538.84-.056.077-.106.093-.192.055a2.6 2.6 0 0 0-.378-.142c-.895-.24-1.78-.227-2.645.132-.08.033-.134.02-.18-.056-.087-.142-.178-.282-.268-.422l-.313-.488c-.044-.067-.104-.086-.175-.047-.076.042-.077.103-.04.173.024.043.045.088.072.13l.447.69c.091.142.082.2-.05.275-.33.19-.63.416-.889.697a3.926 3.926 0 0 0-.854 1.424c-.062.185-.051.197.149.197zm5.378-1.613c.287-.002.592.292.602.58.009.296-.293.613-.59.62-.305.007-.601-.28-.61-.594-.008-.289.303-.604.598-.606zm-3.164.057c.3-.013.57.288.568.601-.002.315-.27.594-.577.599-.321.005-.62-.283-.622-.6-.024-.381.288-.584.631-.6zm7.37 4.126c0-.378.007-.756-.003-1.134a.637.637 0 0 0-.37-.594c-.199-.1-.401-.084-.606-.085-.446 0-.724.28-.725.725v3.766a.65.65 0 0 0 .337.602c.218.131.451.1.683.088.07-.003.149.022.21-.009.3-.147.48-.37.477-.727-.008-.877-.002-1.755-.002-2.632zm-10.955-1.813h-.31a.716.716 0 0 0-.727.815c.012.112.016.224.016.337v1.607c0 .59-.001 1.18.001 1.77.002.256.126.436.348.567.228.135.472.107.71.086.403-.036.648-.323.645-.727-.001-.242-.02-.485-.019-.728.006-1.012-.024-2.025.02-3.038.02-.434-.39-.69-.684-.69z" fill="#6AF0E3" fill-rule="nonzero"/><path d="M43.437 21.831h-5.064c-.258 0-.541.233-.626.485l-.021.085-.007.085v35.028c0 .258.232.541.484.626l.085.021.085.007h22.26c.257 0 .54-.232.626-.484l.02-.085.008-.085V22.486c0-.258-.233-.541-.485-.626l-.084-.021-.085-.007-5.066-.001v.027a2.52 2.52 0 0 1-2.18 2.325l-.162.016-.163.006h-7.118a2.519 2.519 0 0 1-2.489-2.184l-.016-.163-.002-.027z" fill="url(#d)" fill-rule="nonzero" opacity=".4"/><path stroke="#FBF8FF" stroke-width=".535" opacity=".6" d="M32.5 85.5v4M66.5 85.5v4"/><path d="M76.991 71.754c.125 1.146-1.071 2.147-2.68 2.236-.08.005-.159.01-.23.01H24.916C23.307 74 22 73.068 22 71.918c0-.057 0-.109.007-.164l2.45-17.84C24.582 52.834 25.85 52 27.368 52h44.255c1.524 0 2.792.833 2.91 1.914l2.458 17.84z" stroke="#FFF" stroke-width=".669" opacity=".2"/><g transform="translate(29.7 84)" fill="url(#e)" fill-rule="nonzero"><path d="M0 0h6v2.5H0zM34 0h6v2.5h-6z"/></g></g></svg>
